X: 1
T: The Barren Rocks Of Aden
R: polka
M: 2/4
L: 1/8
K: Dmaj
|:f2 f>e|df Ad|ce AB/c/|de fd|
f2 f>e|df Ad|ce AB/c/|1 d2 de:|2 d2 df||
|:af df|ef Af|ge ce|d/e/f/g/ a>f|
af df|ef Af|ge ce|1 d2 df:|2 d2 d2||


Tune 3640	Setting 16649

